src/svg/iconoActividades.svg

<svg xmlns="http://www.w3.org/2000/svg" xmlns:xlink="http://www.w3.org/1999/xlink" width="50px" zoomAndPan="magnify" viewBox="0 0 1050 1049.999947" preserveAspectRatio="xMidYMid meet" version="1.0"><defs><clipPath id="aa1aa1a27a"><path d="M 545 233.355469 L 1043.8125 233.355469 L 1043.8125 761 L 545 761 Z M 545 233.355469 " clip-rule="nonzero"/></clipPath><clipPath id="f4dd9f1d0d"><path d="M 7 233.355469 L 506 233.355469 L 506 761 L 7 761 Z M 7 233.355469 " clip-rule="nonzero"/></clipPath><clipPath id="ac2a833b75"><path d="M 260 308 L 791 308 L 791 868.605469 L 260 868.605469 Z M 260 308 " clip-rule="nonzero"/></clipPath></defs><g clip-path="url(#aa1aa1a27a)"><path fill="#008900" d="M 1043.390625 693.523438 C 1041.667969 647.210938 1015.933594 605.160156 973.671875 574.132812 C 954.144531 559.816406 931.101562 547.851562 905.257812 538.917969 C 943.074219 507.238281 967.136719 459.695312 967.136719 406.5 C 967.136719 311.148438 889.824219 233.832031 794.460938 233.832031 C 699.082031 233.832031 621.769531 311.148438 621.769531 406.5 C 621.769531 459.695312 645.84375 507.238281 683.660156 538.917969 C 657.804688 547.851562 634.785156 559.816406 615.269531 574.132812 C 573.007812 605.148438 547.308594 647.210938 545.527344 693.523438 C 544.902344 709.78125 546.695312 723.46875 550.480469 735.128906 C 615.074219 751.09375 700.617188 760.8125 794.460938 760.8125 C 888.53125 760.8125 974.261719 751.042969 1038.917969 735.019531 C 1042.382812 723.371094 1043.992188 709.707031 1043.390625 693.523438 " fill-opacity="1" fill-rule="nonzero"/></g><g clip-path="url(#f4dd9f1d0d)"><path fill="#008900" d="M 505.160156 693.523438 C 503.4375 647.210938 477.714844 605.160156 435.429688 574.132812 C 415.914062 559.816406 392.871094 547.851562 367.027344 538.917969 C 404.839844 507.238281 428.902344 459.695312 428.902344 406.5 C 428.902344 311.148438 351.59375 233.832031 256.226562 233.832031 C 160.851562 233.832031 83.539062 311.148438 83.539062 406.5 C 83.539062 459.695312 107.613281 507.238281 145.429688 538.917969 C 119.570312 547.851562 96.554688 559.816406 77.039062 574.132812 C 34.777344 605.148438 9.066406 647.210938 7.296875 693.523438 C 6.671875 709.78125 8.464844 723.46875 12.25 735.128906 C 76.84375 751.09375 162.386719 760.8125 256.226562 760.8125 C 350.300781 760.8125 436.03125 751.042969 500.683594 735.019531 C 504.152344 723.371094 505.761719 709.707031 505.160156 693.523438 " fill-opacity="1" fill-rule="nonzero"/></g><g clip-path="url(#ac2a833b75)"><path fill="#0749e0" d="M 789.972656 796.925781 C 788.140625 747.6875 760.785156 702.972656 715.84375 670.003906 C 695.101562 654.78125 670.609375 642.0625 643.128906 632.550781 C 683.328125 598.894531 708.902344 548.355469 708.902344 491.804688 C 708.902344 390.441406 626.722656 308.257812 525.351562 308.257812 C 423.953125 308.257812 341.773438 390.441406 341.773438 491.804688 C 341.773438 548.355469 367.359375 598.894531 407.558594 632.5625 C 380.078125 642.0625 355.597656 654.78125 334.867188 670.003906 C 289.9375 702.972656 262.605469 747.6875 260.714844 796.925781 C 260.0625 814.203125 261.96875 828.765625 265.984375 841.140625 C 334.65625 858.121094 425.585938 868.441406 525.351562 868.441406 C 625.347656 868.441406 716.484375 858.058594 785.207031 841.027344 C 788.890625 828.628906 790.601562 814.117188 789.972656 796.925781 " fill-opacity="1" fill-rule="nonzero"/></g></svg>

<?xml version="1.0" encoding="UTF-8"?>
<svg width="50px" version="1.0" viewBox="0 0 1050 1050" xmlns="http://www.w3.org/2000/svg" zoomAndPan="magnify">
<defs>
<clipPath id="c">
<path d="m545 233.36h498.81v527.64h-498.81z"/>
</clipPath>
<clipPath id="a">
<path d="m7 233.36h499v527.64h-499z"/>
</clipPath>
<clipPath id="b">
<path d="m260 308h531v560.61h-531z"/>
</clipPath>
</defs>
<g clip-path="url(#c)">
<path d="m1043.4 693.52c-1.7227-46.312-27.457-88.363-69.719-119.39-19.527-14.316-42.57-26.281-68.414-35.215 37.816-31.68 61.879-79.223 61.879-132.42 0-95.352-77.312-172.67-172.68-172.67-95.379 0-172.69 77.316-172.69 172.67 0 53.195 24.074 100.74 61.891 132.42-25.855 8.9336-48.875 20.898-68.391 35.215-42.262 31.016-67.961 73.078-69.742 119.39-0.625 16.258 1.168 29.945 4.9531 41.605 64.594 15.965 150.14 25.684 243.98 25.684 94.07 0 179.8-9.7695 244.46-25.793 3.4648-11.648 5.0742-25.312 4.4727-41.496" fill="#008900"/>
</g>
<g clip-path="url(#a)">
<path d="m505.16 693.52c-1.7227-46.312-27.445-88.363-69.73-119.39-19.516-14.316-42.559-26.281-68.402-35.215 37.812-31.68 61.875-79.223 61.875-132.42 0-95.352-77.309-172.67-172.68-172.67-95.375 0-172.69 77.316-172.69 172.67 0 53.195 24.074 100.74 61.891 132.42-25.859 8.9336-48.875 20.898-68.391 35.215-42.262 31.016-67.973 73.078-69.742 119.39-0.625 16.258 1.168 29.945 4.9531 41.605 64.594 15.965 150.14 25.684 243.98 25.684 94.074 0 179.8-9.7695 244.46-25.793 3.4688-11.648 5.0781-25.312 4.4766-41.496" fill="#008900"/>
</g>
<g clip-path="url(#b)">
<path d="m789.97 796.93c-1.832-49.238-29.188-93.953-74.129-126.92-20.742-15.223-45.234-27.941-72.715-37.453 40.199-33.656 65.773-84.195 65.773-140.75 0-101.36-82.18-183.55-183.55-183.55-101.4 0-183.58 82.184-183.58 183.55 0 56.551 25.586 107.09 65.785 140.76-27.48 9.5-51.961 22.219-72.691 37.441-44.93 32.969-72.262 77.684-74.152 126.92-0.65234 17.277 1.2539 31.84 5.2695 44.215 68.672 16.98 159.6 27.301 259.37 27.301 99.996 0 191.13-10.383 259.86-27.414 3.6836-12.398 5.3945-26.91 4.7656-44.102" fill="#0749e0"/>
</g>
</svg>
